X:1097
T:Drimindoo
C:Irish
M:3/4
L:1/8
Q:1/4=80
I: ||
Z:Jack Campin * www.campin.me.uk * 2009
K:B Minor
Bc|d4 c2|B2 ^A2 Bc|d4 Tc2|B4 AB|c4    B2 |AF EF AB|c4    B2|A4
Bc|d4 c2|B2 ^A2 Bc|d4 Te2|f4 c2|dc de f^a|b4    g2|gf ed cf|B4|]
<end>
<start>
